X:1
T:Title
%%score { ( 1 2 ) | ( 3 4 ) }
L:1/8
Q:1/4=84
M:6/8
K:Ab
V:1 treble nm="Grand Piano"
V:2 treble 
V:3 bass 
V:4 bass 
V:1
 [Ec]>[Ec][Ec] c>B[EA] | [FA]2 [EG] F3 | E>F[EG] A>Bc | d2 c B3 | c>de edc | [FB]2 [Fc] [Fd]3 | %6
w: T.~E.~Perkins * * * * *||||||
 c>BA [EA]2 [Ec] | [DB]3 [CA]3 | c>de e3 | [Bd]>[Ac][GB] [GB]3 | c>de [Bd]2 [Ac] | [GB]6 | %12
w: ||||||
 c>cc c2 B |[M:7/8] [EA][EA][=EG] F3 F |[M:3/4] E2 A G2 B | [CA]6 |] %16
w: ||||
V:2
 z3 .E3 | x6 | z3 .E3 | x6 | x6 | x6 | x6 | x6 | x6 | x6 | x6 | x6 | z3 E3 |[M:7/8] x7 | %14
[M:3/4] x6 | x6 |] %16
V:3
 [A,,A,]>[A,,A,][A,,A,] [A,,A,]>[B,,G,][C,A,] | [D,A,]2 [D,A,] [D,A,D]3 | %2
 [E,G,D]>[E,A,D][D,B,] [C,A,]>[E,G,][A,E] | E3 z3 | z3 .E3 | [D,F,]2 [C,=A,] [B,,B,]3 | %6
 [E,G,E]>[E,G,D][F,A,C] [C,A,]2 [A,,A,] | [E,G,]3 [A,,A,]3 | [A,E]>[A,B,E][A,CE] [A,CA]3 | %9
 [G,E]>[K:bass][A,E][E,E] [E,E]3 | [A,EA]>[B,EG][CEA] [G,E]2 [A,E] | [E,E]6 | %12
 [A,EA]>[A,E][A,E] [A,,A,]2 [B,,G,] |[M:7/8] [C,A,][C,A,][C,B,] [D,A,]3 [D,A,D] | %14
[M:3/4] [E,A,C]2 [E,CE] [E,B,D]2 [E,G,D] | [A,,A,]6 |] %16
V:4
 x6 | x6 | x6 | [G,B,]2 A, [E,G,E]3 | [A,E]>[A,B,E][A,CE] [A,C][G,B,][A,E] | x6 | x6 | x6 | x6 | %9
 x3/2[K:bass] x9/2 | x6 | x6 | x6 |[M:7/8] x7 |[M:3/4] x6 | x6 |] %16

